_site/images/guide/common-use-cases.svg

<svg height="322" viewBox="0 0 422 322" width="422" xmlns="http://www.w3.org/2000/svg" xmlns:xlink="http://www.w3.org/1999/xlink"><mask id="a" fill="#fff"><rect fill="#fff" fill-rule="evenodd" height="322" rx="16" width="422"/></mask><g fill="none" fill-rule="evenodd"><rect fill="#d8e5e5" height="322" rx="16" width="422"/><g fill-rule="nonzero" mask="url(#a)"><g transform="translate(204 -263)"><path d="m.905319 1.115259h381.94402v353.393665h-381.94402z" fill="#0b7a76" stroke="#0b7a76" stroke-width="3"/><path d="m151.389452 316.837956c-11.769147-23.506684-26.958387-45.205162-43.757084-65.396801-29.0707985-35.059114-64.3782388-66.501815-106.72704902-84.382968v187.450737h166.27692002c-4.526595-12.858357-9.757327-25.515802-15.792787-37.670968z" fill="#fafafa"/></g><g transform="translate(94 62.773595)"><path d="m15.327137 40.146811h90.713944v123.154585h-90.713944z" fill="#1c3c55"/><path d="m.113534 61.520748h90.713944v123.154585h-90.713944z" fill="#1c3c55"/><path d="m30.54074 29.968747h212.422764v156.28984h-212.422764z" fill="#feca55"/><path d="m135.508441 144.692685c-1.118493-.899388-2.586583-1.246847-3.992803-.944994-10.266039 2.138658-20.964851-.032789-29.565751-6.000711-1.629418-1.123631-3.7893854-1.123631-5.4188034 0-8.6009001 5.967922-19.2997122 8.139369-29.5657515 6.000711-1.4062199-.301853-2.8743093.045606-3.9928025.944994-1.1169934.900721-1.7636249 2.255755-1.7587344 3.685476v35.20102c-.0085741 13.745056 6.6668566 26.64662 17.9200777 34.634023l17.3496773 12.28492c1.6501887 1.167909 3.8636818 1.167909 5.5138698 0l17.349678-12.28492c11.253221-7.987403 17.928651-20.888967 17.920077-34.634023v-35.20102c.004891-1.429721-.641741-2.784755-1.758734-3.685476zm-7.516055 38.044726c.007458 10.756368-5.222404 20.853487-14.040512 27.107546l-14.7113888 10.415005-14.711389-10.415005c-8.8181074-6.254059-14.0479692-16.351178-14.0405114-27.107546v-29.960972c10.04605.853331 20.1073568-1.459895 28.7519004-6.610437 8.6445438 5.150542 18.7058508 7.463768 28.7519008 6.610437zm-21.294372-11.035866-12.7433197 12.918859-4.2161913-4.306287c-1.8575978-1.876211-4.869359-1.876211-6.7269568 0-1.8575978 1.876212-1.8575978 4.918152 0 6.794363l7.5796696 7.65562c.8895056.905816 2.1003382 1.415325 3.3634785 1.415325 1.2631402 0 2.4739729-.509509 3.3634784-1.415325l16.2962893-16.31604c1.857598-1.876212 1.857598-4.918151 0-6.794363-1.857597-1.876211-4.869358-1.876211-6.726956 0z" fill="#1c3c55"/><path d="m94.3470429 57.5626112h-63.8063034v-37.0933919c0-4.5235844 3.6330991-8.1424519 8.1744731-8.1424519h47.5708916c4.5413739 0 8.1744731 3.6188675 8.1744731 8.1424519v37.0933919z" fill="#feca55"/><path d="m221.95965 59.4851345h-36.444526c-1.589481 0-1.589481 2.4879714 0 2.4879714h36.444526c1.589481 0 1.589481-2.4879714 0-2.4879714z" fill="#fff"/><path d="m221.95965 71.4726331h-36.444526c-1.589481 0-1.589481 2.4879714 0 2.4879714h36.444526c1.589481 0 1.589481-2.4879714 0-2.4879714z" fill="#fff"/><path d="m84.696623 6.106839h9.763954v23.861908h-9.763954z" fill="#d24a43"/><path d="m68.574746.226179h9.763954v29.855657h-9.763954z" fill="#697ccc"/><path d="m14.4188622 70.7940955v102.9115445c0 1.583255 2.4977556 1.583255 2.4977556 0v-102.9115445c0-1.5832546-2.4977556-1.5832546-2.4977556 0z" fill="#fff"/></g></g></g></svg>

<?xml version="1.0" encoding="UTF-8"?>
<svg width="422px" height="322px" viewBox="0 0 422 322" version="1.1" xmlns="http://www.w3.org/2000/svg" xmlns:xlink="http://www.w3.org/1999/xlink">
    <!-- Generator: Sketch 52.6 (67491) - http://www.bohemiancoding.com/sketch -->
    <title>Group 6</title>
    <desc>Created with Sketch.</desc>
    <defs>
        <rect id="path-1" x="0" y="0" width="422" height="322" rx="16"></rect>
    </defs>
    <g id="Website" stroke="none" stroke-width="1" fill="none" fill-rule="evenodd">
        <g id="18--Information-Escrow" transform="translate(-877.000000, -1099.000000)">
            <g id="Group-7" transform="translate(137.000000, 1099.000000)">
                <g id="Group-6" transform="translate(740.000000, 0.000000)">
                    <rect id="Rectangle" fill="#D8E5E5" x="0" y="0" width="422" height="322" rx="16"></rect>
                    <g id="Teammates-8">
                        <mask id="mask-2" fill="white">
                            <use xlink:href="#path-1"></use>
                        </mask>
                        <g id="Mask"></g>
                        <g id="Man_2" mask="url(#mask-2)">
                            <g transform="translate(94.000000, -263.000000)">
                                <g id="Window" transform="translate(110.000000, 0.000000)">
                                    <rect id="XMLID_196_" stroke="#0B7A76" stroke-width="3" fill="#0B7A76" fill-rule="nonzero" x="0.905318982" y="1.11525923" width="381.94402" height="353.393665"></rect>
                                    <path d="M151.389452,316.837956 C139.620305,293.331272 124.431065,271.632794 107.632368,251.441155 C78.5615695,216.382041 43.2541292,184.93934 0.905318982,167.058187 L0.905318982,354.508924 L167.182239,354.508924 C162.655644,341.650567 157.424912,328.993122 151.389452,316.837956 Z" id="XMLID_195_" fill="#FAFAFA" fill-rule="nonzero"></path>
                                </g>
                                <g id="Hand__x2B__Folder" transform="translate(0.000000, 284.000000)">
                                    <g id="Folder" transform="translate(0.000000, 41.773595)" fill-rule="nonzero">
                                        <rect id="XMLID_215_" fill="#1C3C55" x="15.3271369" y="40.1468113" width="90.7139438" height="123.154585"></rect>
                                        <rect id="XMLID_214_" fill="#1C3C55" x="0.113534348" y="61.5207475" width="90.7139438" height="123.154585"></rect>
                                        <rect id="XMLID_166_" fill="#FECA55" x="30.5407395" y="29.9687465" width="212.422764" height="156.28984"></rect>
                                        <path d="M135.508441,144.692685 C134.389948,143.793297 132.921858,143.445838 131.515638,143.747691 C121.249599,145.886349 110.550787,143.714902 101.949887,137.74698 C100.320469,136.623349 98.1605016,136.623349 96.5310836,137.74698 C87.9301835,143.714902 77.2313714,145.886349 66.9653321,143.747691 C65.5591122,143.445838 64.0910228,143.793297 62.9725296,144.692685 C61.8555362,145.593406 61.2089047,146.94844 61.2137952,148.378161 L61.2137952,183.579181 C61.2052211,197.324237 67.8806518,210.225801 79.1338729,218.213204 L96.4835502,230.498124 C98.1337389,231.666033 100.347232,231.666033 101.99742,230.498124 L119.347098,218.213204 C130.600319,210.225801 137.275749,197.324237 137.267175,183.579181 L137.267175,148.378161 C137.272066,146.94844 136.625434,145.593406 135.508441,144.692685 Z M127.992386,182.737411 C127.999844,193.493779 122.769982,203.590898 113.951874,209.844957 L99.2404852,220.259962 L84.5290962,209.844957 C75.7109888,203.590898 70.481127,193.493779 70.4885848,182.737411 L70.4885848,152.776439 C80.5346348,153.62977 90.5959416,151.316544 99.2404852,146.166002 C107.885029,151.316544 117.946336,153.62977 127.992386,152.776439 L127.992386,182.737411 Z M106.698014,171.701545 L93.9546943,184.620404 L89.738503,180.314117 C87.8809052,178.437906 84.869144,178.437906 83.0115462,180.314117 C81.1539484,182.190329 81.1539484,185.232269 83.0115462,187.10848 L90.5912158,194.7641 C91.4807214,195.669916 92.691554,196.179425 93.9546943,196.179425 C95.2178345,196.179425 96.4286672,195.669916 97.3181727,194.7641 L113.614462,178.44806 C115.47206,176.571848 115.47206,173.529909 113.614462,171.653697 C111.756865,169.777486 108.745104,169.777486 106.887506,171.653697 L106.698014,171.701545 Z" id="Shape" fill="#1C3C55"></path>
                                        <path d="M94.3470429,57.5626112 L30.5407395,57.5626112 L30.5407395,20.4692193 C30.5407395,15.9456349 34.1738386,12.3267674 38.7152126,12.3267674 L86.2861042,12.3267674 C90.8274781,12.3267674 94.4605773,15.9456349 94.4605773,20.4692193 L94.4605773,57.5626112 L94.3470429,57.5626112 Z" id="XMLID_165_" fill="#FECA55"></path>
                                        <path d="M221.95965,59.4851345 L185.515124,59.4851345 C183.925643,59.4851345 183.925643,61.9731059 185.515124,61.9731059 L221.95965,61.9731059 C223.549131,61.9731059 223.549131,59.4851345 221.95965,59.4851345 Z" id="XMLID_653_" fill="#FFFFFF"></path>
                                        <path d="M221.95965,71.4726331 L185.515124,71.4726331 C183.925643,71.4726331 183.925643,73.9606045 185.515124,73.9606045 L221.95965,73.9606045 C223.549131,73.9606045 223.549131,71.4726331 221.95965,71.4726331 Z" id="XMLID_635_" fill="#FFFFFF"></path>
                                        <rect id="XMLID_136_" fill="#D24A43" x="84.6966234" y="6.10683891" width="9.7639539" height="23.8619076"></rect>
                                        <rect id="XMLID_135_" fill="#697CCC" x="68.574746" y="0.226179219" width="9.7639539" height="29.8556569"></rect>
                                        <path d="M14.4188622,70.7940955 L14.4188622,173.70564 C14.4188622,175.288895 16.9166178,175.288895 16.9166178,173.70564 L16.9166178,70.7940955 C16.9166178,69.2108409 14.4188622,69.2108409 14.4188622,70.7940955 Z" id="XMLID_35_" fill="#FFFFFF"></path>
                                    </g>
                                </g>
                            </g>
                        </g>
                    </g>
                </g>
            </g>
        </g>
    </g>
</svg>
